X:93
T:The Fluttering Duck
R:double jig
C: 2000, 2010 L.E. McCullough 
M:6/8
L:1/8
K:G
D|: G (3B^cd edB | G (3B^cd g2G | ~A3 ~g3 | edB AGE |
G (3B^cd edB  | G (3B^cd g2G | ~A3 ~g3 |1 agf g2D:|2 agf g2a|]
|: bag agf | gag ged | e2a aga | bag ~a3 |
|~b3 ~a3 |~g3 ged | ~A3 ~g3 |1 edB G2a:|2edB G2D|]
<end>
<start>
